packages/katcn/src/icons/svg/stars.svg

<svg width="24" height="25" viewBox="0 0 24 25" fill="none" xmlns="http://www.w3.org/2000/svg">
<path d="M15.6 16.668C15.2 16.668 14.9 16.468 14.7 16.168L13.5 14.068C13 12.968 12 11.968 10.9 11.368L8.79999 10.168C8.49999 10.068 8.29999 9.66796 8.29999 9.36796C8.29999 8.96796 8.49999 8.66796 8.79999 8.46796L10.9 7.26796C12 6.66796 13 5.76796 13.6 4.56796L14.8 2.46796C14.9 2.16796 15.3 1.96796 15.6 1.96796C16 1.96796 16.3 2.16796 16.5 2.46796L17.7 4.56796C18.3 5.66796 19.3 6.66796 20.4 7.26796L22.5 8.46796C22.8 8.66796 23 8.96796 23 9.36796C23 9.76796 22.8 10.068 22.5 10.268L20.4 11.468C19.3 12.068 18.3 13.068 17.7 14.168L16.5 16.268C16.3 16.468 16 16.668 15.6 16.668ZM11.4 9.36796L11.9 9.66796C13.4 10.468 14.6 11.668 15.4 13.168L15.7 13.668L16 13.168C16.8 11.668 18 10.468 19.5 9.66796L20 9.36796L19.5 9.06796C18 8.26796 16.8 7.06796 16 5.56796L15.7 5.06796L15.4 5.56796C14.6 7.06796 13.4 8.26796 11.9 9.06796L11.4 9.36796Z" fill="black"/>
<path d="M6.5 23.9679C6.1 23.9679 5.8 23.7679 5.6 23.4679L5 22.2679C4.5 21.2679 3.7 20.4679 2.7 19.9679L1.5 19.3679C1.2 19.1679 1 18.7679 1 18.4679C1 18.0679 1.2 17.7679 1.5 17.5679L2.7 16.9679C3.7 16.4679 4.5 15.6679 5 14.6679L5.6 13.4679C6 12.8679 7 12.8679 7.4 13.4679L8 14.6679C8.5 15.6679 9.3 16.4679 10.3 16.9679L11.5 17.5679C11.8 17.7679 12 18.0679 12 18.4679C12 18.8679 11.8 19.1679 11.5 19.3679L10.4 19.9679C9.4 20.4679 8.6 21.2679 8.1 22.2679L7.5 23.4679C7.2 23.7679 6.9 23.9679 6.5 23.9679ZM4.1 18.4679C5.1 19.0679 6 19.9679 6.6 20.9679C7.2 19.9679 8.1 19.0679 9.1 18.4679C8 17.7679 7.2 16.9679 6.5 15.9679C5.9 16.9679 5.1 17.7679 4.1 18.4679Z" fill="black"/>
</svg>

<svg xmlns="http://www.w3.org/2000/svg" fill="none" viewBox="0 0 24 25"><path fill="#000" d="M15.6 16.668c-.4 0-.7-.2-.9-.5l-1.2-2.1c-.5-1.1-1.5-2.1-2.6-2.7l-2.1-1.2c-.3-.1-.5-.5-.5-.8 0-.4.2-.7.5-.9l2.1-1.2c1.1-.6 2.1-1.5 2.7-2.7l1.2-2.1c.1-.3.5-.5.8-.5.4 0 .7.2.9.5l1.2 2.1c.6 1.1 1.6 2.1 2.7 2.7l2.1 1.2c.3.2.5.5.5.9s-.2.7-.5.9l-2.1 1.2c-1.1.6-2.1 1.6-2.7 2.7l-1.2 2.1c-.2.2-.5.4-.9.4m-4.2-7.3.5.3c1.5.8 2.7 2 3.5 3.5l.3.5.3-.5c.8-1.5 2-2.7 3.5-3.5l.5-.3-.5-.3c-1.5-.8-2.7-2-3.5-3.5l-.3-.5-.3.5c-.8 1.5-2 2.7-3.5 3.5zm-4.9 14.6c-.4 0-.7-.2-.9-.5l-.6-1.2c-.5-1-1.3-1.8-2.3-2.3l-1.2-.6c-.3-.2-.5-.6-.5-.9 0-.4.2-.7.5-.9l1.2-.6c1-.5 1.8-1.3 2.3-2.3l.6-1.2c.4-.6 1.4-.6 1.8 0l.6 1.2c.5 1 1.3 1.8 2.3 2.3l1.2.6c.3.2.5.5.5.9s-.2.7-.5.9l-1.1.6c-1 .5-1.8 1.3-2.3 2.3l-.6 1.2c-.3.3-.6.5-1 .5m-2.4-5.5c1 .6 1.9 1.5 2.5 2.5.6-1 1.5-1.9 2.5-2.5-1.1-.7-1.9-1.5-2.6-2.5-.6 1-1.4 1.8-2.4 2.5"/></svg>
